icons/svg/music-note-bluetooth-off.svg

﻿<?xml version="1.0" encoding="utf-8"?>
<!DOCTYPE svg PUBLIC "-//W3C//DTD SVG 1.1//EN" "http://www.w3.org/Graphics/SVG/1.1/DTD/svg11.dtd">
<svg xmlns="http://www.w3.org/2000/svg" xmlns:xlink="http://www.w3.org/1999/xlink" version="1.1" baseProfile="full" width="24" height="24" viewBox="0 0 24.00 24.00" enable-background="new 0 0 24.00 24.00" xml:space="preserve">
	<path fill="#000000" fill-opacity="1" stroke-width="1.33333" stroke-linejoin="miter" d="M 10,3L 10,8.6758L 13,11.6758L 13,6L 17,6L 17,3L 10,3 Z M 3.27734,4.5L 2,5.7676L 8.25586,12.0254C 5.88662,12.1549 4,14.0984 4,16.5C 4,18.9853 6.01472,21 8.5,21C 10.9016,21 12.8451,19.1134 12.9746,16.7441L 17.6836,21.4531L 18.957,20.1797L 13,14.2227L 10,11.2227L 3.27734,4.5 Z M 20,7L 20,10.7891L 17.7109,8.5L 17,9.2109L 19.7891,12L 17,14.7891L 17.7109,15.5L 20,13.2109L 20,17L 20.5,17L 23.3496,14.1504L 21.2109,12L 23.3594,9.8496L 20.5,7L 20,7 Z M 21,8.9102L 21.9395,9.8496L 21,10.7891L 21,8.9102 Z M 21,13.2109L 21.9395,14.1504L 21,15.0898L 21,13.2109 Z "/>
</svg>

<svg xmlns="http://www.w3.org/2000/svg" version="1.1" baseProfile="full" width="24" height="24" viewBox="0 0 24.00 24.00" xml:space="preserve"><path fill="#000" fill-opacity="1" stroke-width="1.333" stroke-linejoin="miter" d="M10 3v5.676l3 3V6h4V3h-7zM3.277 4.5L2 5.768l6.256 6.257C5.886 12.155 4 14.098 4 16.5 4 18.985 6.015 21 8.5 21c2.402 0 4.345-1.887 4.475-4.256l4.71 4.71 1.272-1.274L13 14.223l-3-3L3.277 4.5zM20 7v3.79L17.71 8.5l-.71.71L19.79 12 17 14.79l.71.71L20 13.21V17h.5l2.85-2.85L21.21 12l2.15-2.15L20.5 7H20zm1 1.91l.94.94-.94.94V8.91zm0 4.3l.94.94-.94.94v-1.88z"/></svg>
